!!!COM: Anonymous
!!!OTL: Ave nostra salus
!!!AGN: Motet
!!!SCT: Ano0421
!!!SCA: Ano0421
!!!voices: 4
**kern	**text	**kern	**text	**kern	**text	**kern	**text
*part4	*part4	*part3	*part3	*part2	*part2	*part1	*part1
*staff4	*staff4	*staff3	*staff3	*staff2	*staff2	*staff1	*staff1
*I"Bassus	*	*I"Tenor	*	*I"Altus	*	*I"Superius	*
*I'B	*	*I'T	*	*I'A	*	*I'S	*
*>[A,B,C]	*>[A,B,C]	*>[A,B,C]	*>[A,B,C]	*>[A,B,C]	*>[A,B,C]	*>[A,B,C]	*>[A,B,C]
*>AveNostra[A]	*>AveNostra[A]	*>AveNostra[A]	*>AveNostra[A]	*>AveNostra[A]	*>AveNostra[A]	*>AveNostra[A]	*>AveNostra[A]
*>Salve[B]	*>Salve[B]	*>Salve[B]	*>Salve[B]	*>Salve[B]	*>Salve[B]	*>Salve[B]	*>Salve[B]
*>OClemens[C]	*>OClemens[C]	*>OClemens[C]	*>OClemens[C]	*>OClemens[C]	*>OClemens[C]	*>OClemens[C]	*>OClemens[C]
*>A	*>A	*>A	*>A	*>A	*>A	*>A	*>A
*clefF4	*	*clefGv2	*	*clefGv2	*	*clefG2	*
*k[]	*	*k[]	*	*k[]	*	*k[]	*
*M2/2	*	*M2/2	*	*M2/2	*	*M2/2	*
*omet(C|)	*	*omet(C|)	*	*omet(C|)	*	*omet(C|)	*
!!section: Ave nostra salus
=1	=1	=1	=1	=1	=1	=1	=1
1D	A-	1A	A-	1d	A-	1f	A-
=2	=2	=2	=2	=2	=2	=2	=2
1D;	-ve	1A;	-ve	1d;	-ve	1f;	-ve
=3	=3	=3	=3	=3	=3	=3	=3
1r	.	1r	.	1r	.	1r	.
=4	=4	=4	=4	=4	=4	=4	=4
1E	no-	1G	no-	1B	no-	1g	no-
=5	=5	=5	=5	=5	=5	=5	=5
1D	-stra	1F	-stra	1d	-stra	1a	-stra
=6	=6	=6	=6	=6	=6	=6	=6
1C	sa-	1E	sa-	1e	sa-	1cc	sa-
=7	=7	=7	=7	=7	=7	=7	=7
1GG;	-lus,	1G;	-lus,	1d;	-lus,	1b;	-lus,
!!LO:LB:g=original
=8	=8	=8	=8	=8	=8	=8	=8
1r	.	1r	.	1r	.	1r	.
=9	=9	=9	=9	=9	=9	=9	=9
*	*edit	*	*edit	*	*edit	*	*
[1D	Je-	1F	Je-	[1d	Je-	1a	Je-
=10	=10	=10	=10	=10	=10	=10	=10
2D]	.	1F	-su	2d]	.	1a	-su
2F	-su	.	.	[2d	-su	.	.
=11	=11	=11	=11	=11	=11	=11	=11
1E	Chri-	1G	Chri-	2d]	.	1g	Chri-
.	.	.	.	2c#i	Chri-	.	.
=12	=12	=12	=12	=12	=12	=12	=12
1D;	-ste,	1A;	-ste,	1d;	-ste,	1f#X;	-ste,
=13	=13	=13	=13	=13	=13	=13	=13
1r	.	1r	.	1r	.	1r	.
=14	=14	=14	=14	=14	=14	=14	=14
2GG	fi-	2B	fi-	2d	fi-	2g	fi-
2GG	-li	2B	-li	2d	-li	2g	-li
!!LO:LB:g=original
=15	=15	=15	=15	=15	=15	=15	=15
2C	sum-	2G	sum-	2e	sum-	2g	sum-
2E	-mi	2G	-mi	2c	-mi	2g	-mi
=16	=16	=16	=16	=16	=16	=16	=16
1D	pa-	2.A	pa-	1d	pa-	1f	pa-
.	.	4B	.	.	.	.	.
=17	=17	=17	=17	=17	=17	=17	=17
1C;	-tris,	1c;	-tris,	1G;	-tris,	1e;	-tris,
=18	=18	=18	=18	=18	=18	=18	=18
1r	.	1r	.	1r	.	1r	.
=19	=19	=19	=19	=19	=19	=19	=19
2C	qui	2G	qui	2c	qui	2e	qui
2C	pro	2c	pro	2G	pro	2e	pro
=20	=20	=20	=20	=20	=20	=20	=20
2D	no-	2A	no-	2F	no-	2d	no-
2AA	-bis	2A	-bis	2E	-bis	2c	-bis
=21	=21	=21	=21	=21	=21	=21	=21
2GG	mi-	2B	mi-	2G	mi-	2d	mi-
2GG	-se-	2B	-se-	2G	-se-	2d	-se-
!!LO:LB:g=original
=22	=22	=22	=22	=22	=22	=22	=22
1AA;	-ris	1A;	-ris	1E;	-ris	1c;	-ris
=23	=23	=23	=23	=23	=23	=23	=23
1r	.	1r	.	1r	.	1r	.
=24	=24	=24	=24	=24	=24	=24	=24
2GG	cru-	2B	cru-	2G	cru-	2d	cru-
2C	-cis	2c	-cis	2G	-cis	2e	-cis
=25	=25	=25	=25	=25	=25	=25	=25
2D	sup-	2A	sup-	2F	sup-	2f	sup-
[2E	-pli	[2G	-pli-	2E	-pli-	[2g	-pli-
=26	=26	=26	=26	=26	=26	=26	=26
2E]	.	4G]	.	4r	.	2g]	.
.	.	4A	.	2G	.	.	.
2E	ci-	4B	.	.	.	2g	-ci-
.	.	4c	-ci-	4G	-ci-	.	.
=27	=27	=27	=27	=27	=27	=27	=27
[1D	-um	2.d	-um	1A	-um	[1f	-um
.	.	8cL	.	.	.	.	.
.	.	8BJ	.	.	.	.	.
=28	=28	=28	=28	=28	=28	=28	=28
1D];	.	1A;	.	1d;	.	1f];	.
!!LO:PB:g=original
=29	=29	=29	=29	=29	=29	=29	=29
2D	su-	2d	su-	2d	su-	2f	su-
4G	-sti-	4B	-sti-	4e	-sti-	4g	-sti-
[4F	-nu-	[4c	-nu-	[4f	-nu-	[4a	-nu-
=30	=30	=30	=30	=30	=30	=30	=30
8F]L	.	4c]	.	8f]L	.	4a]	.
8EJ	.	.	.	8gJ	.	.	.
4F	.	8BL	.	4a	.	4cc	-i-
.	.	8AJ	.	.	.	.	.
4G	.	4G	.	2d	-i-	4b	.
4D	.	4F	.	.	.	[4a	.
=31	=31	=31	=31	=31	=31	=31	=31
*	*	*lig	*	*	*	*	*
2E	-i-	2G	-i-	4B	.	4a]	.
.	.	.	.	4c	.	2g	.
2D	.	2A	.	2d	.	.	.
*	*	*Xlig	*	*	*	*	*
.	.	.	.	.	.	4f#i	.
=32	=32	=32	=32	=32	=32	=32	=32
1GGl	-sti.	1Gl	-sti.	1dl	-sti.	1gl	-sti.
=33||	=33||	=33||	=33||	=33||	=33||	=33||	=33||
*>B	*>B	*>B	*>B	*>B	*>B	*>B	*>B
!!section: Salve salus mundi
*	*Xedit	*	*Xedit	*	*Xedit	*	*
1D	Sal-	1A	Sal-	1d	Sal-	1f	Sal-
=34	=34	=34	=34	=34	=34	=34	=34
1D	-ve	1A	-ve	1d	-ve	1f	-ve
!!LO:LB:g=original
=35	=35	=35	=35	=35	=35	=35	=35
1E	sa-	1G	sa-	1B	sa-	1g	sa-
=36	=36	=36	=36	=36	=36	=36	=36
1D	-lus	1F	-lus	1d	-lus	1a	-lus
=37	=37	=37	=37	=37	=37	=37	=37
1C	mun-	1E	mun-	1e	mun-	1cc	mun-
=38	=38	=38	=38	=38	=38	=38	=38
1GG;	-di,	1G;	-di,	1d;	-di,	1b;	-di,
=39	=39	=39	=39	=39	=39	=39	=39
*	*edit	*	*edit	*	*edit	*	*
[1D	ver-	[1F	ver-	[1d	ver-	[1a	ver-
=40	=40	=40	=40	=40	=40	=40	=40
2D]	.	2F]	.	2d]	.	2a]	.
2F	-bum	2F	-bum	[2d	-bum	2a	-bum
=41	=41	=41	=41	=41	=41	=41	=41
1E	pa-	1G	pa-	2d]	.	1g	pa-
.	.	.	.	2c#i	pa-	.	.
=42	=42	=42	=42	=42	=42	=42	=42
1D;	-tris,	1A;	-tris,	1d;	-tris,	1f#i;	-tris,
!!LO:LB:g=original
=43	=43	=43	=43	=43	=43	=43	=43
1GG	ho-	1B	ho-	1d	ho-	1g	ho-
=44	=44	=44	=44	=44	=44	=44	=44
2C	-sti-	2G	-sti-	2e	-sti-	2g	-sti-
2E	-a	2G	-a	2c	-a	2g	-a
=45	=45	=45	=45	=45	=45	=45	=45
1D	sa-	2.A	sa-	1d	sa-	1f	sa-
.	.	4B	.	.	.	.	.
=46	=46	=46	=46	=46	=46	=46	=46
1C	-cra,	1c	-cra,	1G	-cra,	1e	-cra,
=47	=47	=47	=47	=47	=47	=47	=47
2C	ve-	2G	ve-	2c	ve-	2e	ve-
2C	-ra	2c	-ra	2G	-ra	2e	-ra
=48	=48	=48	=48	=48	=48	=48	=48
2D	vi-	2A	vi-	2F	vi-	2d	vi-
2AA	-va	2A	-va	2E	-va	2c	-va
!!LO:LB:g=original
=49	=49	=49	=49	=49	=49	=49	=49
1GG	ca-	1B	ca-	1G	ca-	1d	ca-
=50	=50	=50	=50	=50	=50	=50	=50
1AA	-ro,	1A	-ro,	1E	-ro,	1c	-ro,
=51	=51	=51	=51	=51	=51	=51	=51
2GG	De-	2B	De-	2G	De-	2d	De-
2C	-i-	2c	-i-	2G	-i	2e	-i-
=52	=52	=52	=52	=52	=52	=52	=52
2D	-tas	2A	-tas	2F	tas	2f	-tas
[2E	in-	[2G	in-	2E	.	[2g	in-
=53	=53	=53	=53	=53	=53	=53	=53
2E]	.	4G]	.	4r	.	2g]	.
.	.	4A	.	2G	in-	.	.
2E	-te-	4B	-te-	.	.	2g	-te-
.	.	4c	.	4G	-te-	.	.
=54	=54	=54	=54	=54	=54	=54	=54
[1Dl;	-gra,	2.d	-gra,	1A	-gra,	[1fl;	-gra,
.	.	4c	.	.	.	.	.
=55	=55	=55	=55	=55	=55	=55	=55
1D]	.	1A;	.	1d;	.	1f]	.
!!LO:PB:g=original
=56	=56	=56	=56	=56	=56	=56	=56
2D	ve-	2d	ve-	2d	ve-	2f	ve-
4G	-rus	4B	-rus	4e	-rus	4g	-rus
[4F	ho-	[4c	ho-	[4f	ho-	[4a	ho-
=57	=57	=57	=57	=57	=57	=57	=57
8F]L	.	4c]	.	8f]L	.	4a]	.
8EJ	.	.	.	8gJ	.	.	.
4F	.	8BL	.	4a	.	4cc	.
.	.	8AJ	.	.	.	.	.
4G	.	4G	.	2d	.	4b	.
4D	.	4F	.	.	.	[4a	.
=58	=58	=58	=58	=58	=58	=58	=58
*	*	*lig	*	*	*	*	*
2E	.	2G	.	4B	.	4a]	.
.	.	.	.	4c	.	2g	.
2D	.	2A	.	2d	.	.	.
*	*	*Xlig	*	*	*	*	*
.	.	.	.	.	.	4f#i	.
=59	=59	=59	=59	=59	=59	=59	=59
1GGl	-mo.	1Gl	-mo.	1dl	-mo.	1gl	-mo.
=60||	=60||	=60||	=60||	=60||	=60||	=60||	=60||
*>C	*>C	*>C	*>C	*>C	*>C	*>C	*>C
!!section: O clemens
2r	.	2r	.	2r	.	2r	.
*	*Xedit	*	*Xedit	*	*Xedit	*	*
2AA	O	2E	O	2A	O	2cc	O
=61	=61	=61	=61	=61	=61	=61	=61
1AA	cle-	1E	cle-	1c	cle-	1cc	cle-
=62	=62	=62	=62	=62	=62	=62	=62
1GG;	-mens!	1G;	-mens!	1d;	-mens!	1b;	-mens!
!!LO:LB:g=original
=63	=63	=63	=63	=63	=63	=63	=63
2r	.	2r	.	2r	.	2r	.
2G	O	2G	O	2d	O	2b	O
=64	=64	=64	=64	=64	=64	=64	=64
1G	pi-	1B	pi-	1d	pi-	1b	pi-
=65	=65	=65	=65	=65	=65	=65	=65
1F;	-e!	1c;	-e!	1f;	-e!	1a;	-e!
=66	=66	=66	=66	=66	=66	=66	=66
2r	.	2r	.	2r	.	2r	.
*	*edit	*	*	*	*	*	*
2D	O	2d	O	2f	O	2a	O
=67	=67	=67	=67	=67	=67	=67	=67
*	*	*	*edit	*	*edit	*	*
2D	Je-	2d	Je-	2f	Je-	2a	Je-
2F	-su	2A	-su	2c	-su	2a	-su
=68	=68	=68	=68	=68	=68	=68	=68
1E	dul-	1B	dul-	1e	dul-	1g	dul-
=69	=69	=69	=69	=69	=69	=69	=69
1Dl;	-cis	1dl;	-cis	1Al;	-cis	1f#il;	-cis
!!LO:LB:g=original
=70	=70	=70	=70	=70	=70	=70	=70
2GG	fi-	1r	.	2G	fi-	1r	.
4GG	-li	.	.	4E	-li	.	.
[4AA	.	.	.	4C	.	.	.
=71	=71	=71	=71	=71	=71	=71	=71
4AA]	.	1r	.	4F	.	1r	.
4C	.	.	.	4E	.	.	.
2BB	.	.	.	2D	.	.	.
=72	=72	=72	=72	=72	=72	=72	=72
2.C	vir-	2G	fi-	2r	.	1r	.
.	.	4G	-li	2c	vir-	.	.
4C	-gi-	[4A	.	.	.	.	.
=73	=73	=73	=73	=73	=73	=73	=73
*lig	*	*	*	*	*	*	*
2C	-nis	4A]	.	2e	.	1r	.
.	.	4c	.	.	.	.	.
2D	.	2B	.	2d	.	.	.
*Xlig	*	*	*	*	*	*	*
=74	=74	=74	=74	=74	=74	=74	=74
2C	vir-	2.c	vir-	4.e	-gi-	2g	fi-
.	.	.	.	8f	.	.	.
4E	.	.	.	4g	.	4g	-li
[4F	-gi-	4c	-gi-	[4f	.	[4a	.
=75	=75	=75	=75	=75	=75	=75	=75
8F]L	.	2c	-nis	8f]L	.	4a]	.
8GJ	.	.	.	8eJ	.	.	.
4A	.	.	.	4f	.	4cc	.
2G	-nis	2d	.	2g	-nis	2b	.
!!LO:LB:g=original
=76	=76	=76	=76	=76	=76	=76	=76
1C	Ma-	2c	.	4r	.	2.cc	vir-
.	.	.	.	2g	Ma-	.	.
.	.	2G	Ma-	.	.	.	.
.	.	.	.	4e	.	4cc	-gi-
=77	=77	=77	=77	=77	=77	=77	=77
2BB	.	2B	-ri-	2d	.	2dd	-nis
2C	.	2G	.	2e	.	4.cc	Ma-
.	.	.	.	.	.	8b	.
=78	=78	=78	=78	=78	=78	=78	=78
2.F	.	4A	.	2f	.	8aL	.
.	.	.	.	.	.	8gJ	.
.	.	2c	.	.	.	2a	.
.	.	.	.	2r	.	.	.
4D	.	[4d	.	.	.	[4b	.
=79	=79	=79	=79	=79	=79	=79	=79
2G	.	4d]	.	2.d	-ri-	4b]	.
.	.	8cL	.	.	.	8aL	.
.	.	8BJ	.	.	.	8gJ	.
4r	.	4A	.	.	.	4f	-ri-
[4F	-ri-	[4c	.	[4f	.	[4a	.
=80	=80	=80	=80	=80	=80	=80	=80
4F]	.	4c]	.	8f]L	.	4a]	.
.	.	.	.	8eJ	.	.	.
4G	.	4B	.	2.d	.	2g	.
2D	.	2A	.	.	.	.	.
.	.	.	.	.	.	4f#i	.
=81	=81	=81	=81	=81	=81	=81	=81
1GGl	-e!	1Gl	-e!	1dl	-e!	1gl	-e!
==	==	==	==	==	==	==	==
*-	*-	*-	*-	*-	*-	*-	*-
!!!system-decoration: [*]
!!!RDF**kern: j = editorial accidental, optional, paren up
!!!RDF**kern: i = editorial accidental
!!!RDF**kern: l = terminal breve
!!!PTL: Gaspar van Weerbeke: Collected Works. IV. Motets
!!!PPR: American Institute of Musicology
!!!PC#: Corpus Mensurabilis Musicae 106/IV
!!!PDT: 2010
!!!PED: Pavanello, Agnese
!!!YEC: Copyright 2008, Pavanello, Agnese
!!!YEM: CC-BY-NC 4.0 (https://creativecommons.org/licenses/by-nc/4.0/legalcode)
!!!EED: Mair-Gruber, Roland
!!!EEV: 2021/09/23
!!!muse2ps: C^@{COM}^i2I150v90,90,90,120c122z18l2700t130
